tools/download-figma-icons/icons/solid/toothbrush.svg

<svg width="25" height="24" viewBox="0 0 25 24" fill="none" xmlns="http://www.w3.org/2000/svg">
<path fill-rule="evenodd" clip-rule="evenodd" d="M23.5689 4.76287C23.2539 4.36539 22.7966 4.1179 22.2942 4.0654C21.7843 4.0129 21.2894 4.16289 20.8995 4.47788L20.8545 4.51538L19.8048 3.36043C19.8236 3.36043 19.8404 3.35668 19.8573 3.35293C19.8742 3.34918 19.891 3.34543 19.9098 3.34543H19.9248C20.2247 3.36793 20.4946 3.17293 20.6146 2.89545C20.7346 2.62546 20.6821 2.30297 20.4721 2.08548L19.2949 0.833029C18.7626 0.270552 18.0503 -0.0144366 17.3004 0.000562829C16.1607 0.0380613 14.9835 0.788031 13.7988 2.22797C13.3789 2.73795 12.0068 4.0504 10.7246 4.0504H10.7171C10.4172 4.0654 10.1398 4.23039 10.0198 4.50038C9.89982 4.77787 9.9598 5.10036 10.1623 5.31785L11.3395 6.5628C11.8493 7.10277 12.5242 7.40276 13.244 7.40276H13.3339C13.4839 7.39526 13.6264 7.38026 13.7763 7.35026L15.2535 8.9927L0.707147 20.6172C-0.110146 21.2772 -0.237614 22.4771 0.422219 23.2946C0.744638 23.6921 1.20202 23.9396 1.70439 23.9921C1.77188 23.9996 1.83936 23.9996 1.90684 23.9996C2.34173 23.9996 2.76163 23.8496 3.09904 23.5796L23.2914 7.44026C23.6888 7.11777 23.9288 6.66029 23.9888 6.15781C24.0412 5.65533 23.8913 5.15285 23.5689 4.76287ZM17.9003 6.87028L16.6031 5.43784C16.6406 5.39287 16.6799 5.34978 16.7193 5.30668L16.7193 5.3066C16.7587 5.26347 16.7981 5.22035 16.8356 5.17535C16.8401 5.17535 16.8446 5.16725 16.8491 5.15915C16.8521 5.15375 16.8551 5.14835 16.8581 5.14535L18.2077 6.63029L17.9003 6.87028ZM19.6773 5.45284L19.3774 5.69283L17.9678 4.1329C18.0462 4.07688 18.1246 4.02506 18.2061 3.97116L18.2902 3.9154L19.6773 5.45284ZM13.289 5.90282C12.8466 5.88782 12.5916 5.70783 12.4267 5.53534L12.1717 5.25785C13.5289 4.72537 14.5936 3.60792 14.946 3.16543L14.961 3.18043C15.8308 2.11548 16.6781 1.523 17.3454 1.5005C17.7578 1.4705 18.0428 1.68799 18.2077 1.86799L18.4627 2.13798C16.9677 2.73181 15.848 4.02182 15.6895 4.2044L15.6734 4.22289C14.8036 5.28035 13.9563 5.88032 13.289 5.90282ZM15.216 6.71279C15.3209 6.63779 15.4259 6.5628 15.5309 6.4803L16.7306 7.81525L16.4307 8.05524L15.216 6.71279ZM8.62543 3.00061C9.24673 3.00061 9.75039 2.49695 9.75039 1.87566C9.75039 1.25436 9.24673 0.750702 8.62543 0.750702C8.00414 0.750702 7.50048 1.25436 7.50048 1.87566C7.50048 2.49695 8.00414 3.00061 8.62543 3.00061ZM9.0001 7.87541C9.0001 9.3251 7.82515 10.5003 6.37577 10.5003C4.92639 10.5003 3.75143 9.3251 3.75143 7.87541C3.75143 6.42572 4.92639 5.25052 6.37577 5.25052C7.82515 5.25052 9.0001 6.42572 9.0001 7.87541Z" fill="black"/>
</svg>

<svg xmlns="http://www.w3.org/2000/svg" width="25" height="24" fill="none" viewBox="0 0 25 24"><path fill="currentColor" fill-rule="evenodd" d="M23.569 4.763a1.897 1.897 0 0 0-2.67-.285l-.044.037-1.05-1.155q.027 0 .052-.007t.053-.008h.015c.3.023.57-.172.69-.45a.74.74 0 0 0-.143-.81L19.295.833A2.64 2.64 0 0 0 17.3.001c-1.14.037-2.317.787-3.501 2.227-.42.51-1.792 1.822-3.074 1.822h-.008c-.3.015-.577.18-.697.45-.12.278-.06.6.142.818l1.177 1.245c.51.54 1.185.84 1.905.84h.09c.15-.008.292-.023.442-.053l1.478 1.643L.707 20.617a1.905 1.905 0 0 0 .997 3.375q.102.01.203.008c.435 0 .855-.15 1.192-.42L23.291 7.44a1.93 1.93 0 0 0 .698-1.282 1.88 1.88 0 0 0-.42-1.395M17.9 6.87l-1.297-1.432q.057-.067.116-.131.06-.065.117-.132.006-.002.013-.016l.01-.014 1.349 1.485zm1.777-1.417-.3.24-1.41-1.56q.119-.083.24-.162l.083-.056zm-6.388.45c-.442-.015-.697-.195-.862-.368l-.255-.277c1.357-.533 2.422-1.65 2.774-2.093l.015.015c.87-1.065 1.717-1.657 2.384-1.68.413-.03.698.188.863.368l.255.27c-1.495.594-2.615 1.884-2.774 2.066l-.016.019c-.87 1.057-1.717 1.657-2.384 1.68m1.927.81q.158-.11.315-.233l1.2 1.335-.3.24zM8.626 3a1.125 1.125 0 1 0 0-2.25 1.125 1.125 0 0 0 0 2.25M9 7.875a2.625 2.625 0 1 1-5.25.001 2.625 2.625 0 0 1 5.25 0" clip-rule="evenodd"/></svg>
